assets/logos/icons/arrow-down.svg

<svg height="24" viewBox="0 0 24 24" width="24" xmlns="http://www.w3.org/2000/svg"><path d="m18.3084271 10.92-3.2557864-3.25578644 1.4142135-1.41421356 5.6568543 5.6568542-5.6568543 5.6568543-1.4142135-1.4142136 3.2294949-3.2294949h-8.1721356v-2zm-16.1984271 0h2v2h-2zm3 0h4v2h-4z" fill="#492f5c" fill-rule="evenodd" transform="matrix(0 1 -1 0 23.924 -.11)"/></svg>

<svg xmlns="http://www.w3.org/2000/svg" xmlns:xlink="http://www.w3.org/1999/xlink" width="24" height="24" viewBox="0 0 24 24">
  <defs>
    <path id="arrow-down-a" d="M18.3084271,10.92 L15.0526407,7.66421356 L16.4668542,6.25 L22.1237085,11.9068542 L16.4668542,17.5637085 L15.0526407,16.1494949 L18.2821356,12.92 L10.11,12.92 L10.11,10.92 L18.3084271,10.92 Z M2.11,10.92 L4.11,10.92 L4.11,12.92 L2.11,12.92 L2.11,10.92 Z M5.11,10.92 L9.11,10.92 L9.11,12.92 L5.11,12.92 L5.11,10.92 Z"/>
  </defs>
  <use fill="#492F5C" fill-rule="evenodd" transform="rotate(90 12.017 11.907)" xlink:href="#arrow-down-a"/>
</svg>
